pico_icons/symbolic/status/network-cellular-hspa-symbolic.svg

<?xml version="1.0" encoding="UTF-8"?>
<svg height="16px" viewBox="0 0 16 16" width="16px" xmlns="http://www.w3.org/2000/svg">
    <path d="m 3 0 c -1.660156 0 -3 1.339844 -3 3 v 10 c 0 1.660156 1.339844 3 3 3 h 10 c 1.660156 0 3 -1.339844 3 -3 v -10 c 0 -1.660156 -1.339844 -3 -3 -3 z m 1 3 h 2 v 4 h 4 v -4 h 2 v 10 h -2 v -4 h -4 v 4 h -2 z m 0 0" fill="#2e3436"/>
</svg>

<svg xmlns="http://www.w3.org/2000/svg" width="16" height="16" version="1.1">
 <path style="fill:#fff1e8" d="M 3 1 C 1.892 1 1 1.892 1 3 L 1 13 C 1 14.108 1.892 15 3 15 L 13 15 C 14.108 15 15 14.108 15 13 L 15 3 C 15 1.892 14.108 1 13 1 L 3 1 z M 4 3 L 6 3 L 6 7 L 10 7 L 10 3 L 12 3 L 12 13 L 10 13 L 10 9 L 6 9 L 6 13 L 4 13 L 4 3 z"/>
</svg>
